svg/24/logo-snapchat-check.svg

<svg width="24" height="24" viewBox="0 0 24 24" fill="currentColor" xmlns="http://www.w3.org/2000/svg"><path d="M19.8804 10.3289C20.0225 10.696 20.0319 11.0947 19.911 11.4617C19.5804 11.3296 19.2364 11.2239 18.8816 11.1471C18.931 11.0115 18.9294 10.8688 18.8701 10.7134C18.7715 10.4571 18.53 10.3585 18.2786 10.3585C18.1998 10.3585 18.1209 10.3634 18.0421 10.3831C17.7597 10.4443 17.4826 10.5535 17.2481 10.6459C17.0855 10.71 16.9435 10.766 16.8345 10.7922C16.8 10.8021 16.7705 10.807 16.736 10.807C16.593 10.807 16.5437 10.7429 16.5536 10.5704L16.5581 10.5031C16.594 9.96408 16.6586 8.99333 16.5782 8.08145C16.4649 6.77536 16.0459 6.12477 15.5432 5.55305C15.3017 5.27704 14.1731 4.08923 12.0094 4.08923C9.84569 4.08923 8.71703 5.28197 8.47552 5.55798C7.9728 6.1297 7.55386 6.78029 7.4405 8.08638C7.36423 8.95225 7.41865 9.8712 7.45133 10.4232L7.46022 10.5754C7.47007 10.738 7.42079 10.8119 7.27786 10.8119C7.24336 10.8119 7.21378 10.807 7.17928 10.7971C7.07451 10.77 6.93919 10.7169 6.78444 10.6561C6.54608 10.5625 6.26164 10.4508 5.97176 10.3881C5.8929 10.3733 5.81404 10.3634 5.73518 10.3634C5.48382 10.3634 5.24232 10.462 5.14375 10.7183C5.00081 11.0929 5.19303 11.3935 5.62675 11.6991C5.70483 11.7526 5.84145 11.8409 6.00089 11.9439C6.38493 12.1921 6.90138 12.5258 7.05114 12.6651C7.26428 12.8593 7.24528 13.0125 7.2216 13.2035L7.21871 13.227C7.199 13.3946 6.72092 15.6272 3.73415 17.0713C3.56164 17.1551 3.261 17.3326 3.78836 17.6233C4.23787 17.871 4.60506 17.9687 4.91562 18.0513C5.17371 18.12 5.39271 18.1782 5.58732 18.3035C5.78195 18.4288 5.80928 18.6334 5.8347 18.8238C5.85628 18.9853 5.87648 19.1365 5.9964 19.2202C6.13787 19.3188 6.39867 19.3289 6.74959 19.3424C7.20557 19.3599 7.81373 19.3834 8.51002 19.6145C8.86083 19.7298 9.16521 19.917 9.48573 20.1141C10.1044 20.4945 10.7832 20.9119 11.972 20.9205C12.2007 21.2894 12.4654 21.6338 12.7611 21.9487C12.5226 21.9815 12.2662 22 11.9897 22C10.4667 22 9.55983 21.4431 8.89446 21.034C8.61847 20.8615 8.38187 20.7136 8.15023 20.6397C7.59329 20.4573 7.11028 20.4376 6.68149 20.4228L6.66076 20.422C6.19524 20.4026 5.75399 20.3843 5.36061 20.1123C5.2226 20.0137 5.09939 19.8905 5.00574 19.7476C4.91547 19.6146 4.87329 19.5021 4.8378 19.4076C4.79967 19.3059 4.76927 19.2249 4.69524 19.1611C4.62131 19.1118 4.54245 19.0773 4.45373 19.0527C4.02987 18.9393 3.62572 18.7767 3.24621 18.5697C3.06385 18.4711 2.89627 18.3429 2.75334 18.1951C2.36398 17.7909 2.26541 17.3178 2.41819 16.8988C2.59424 16.4252 2.96992 16.2367 3.36332 16.0393C3.4325 16.0046 3.50222 15.9697 3.5715 15.9328C4.4488 15.4547 5.13882 14.8584 5.6169 14.1585C5.7549 13.9613 5.87319 13.7494 5.97176 13.5326C6.02105 13.4044 6.01612 13.3354 5.98655 13.2713C5.95205 13.2171 5.90769 13.1728 5.85347 13.1383C5.70073 13.0397 5.54787 12.9411 5.44439 12.8721L5.37615 12.8278C5.21182 12.721 5.08275 12.6372 4.99589 12.5764C4.62624 12.3152 4.36502 12.0392 4.20237 11.7287C3.97072 11.2949 3.94115 10.7873 4.11858 10.3289C4.36502 9.68327 4.97617 9.27912 5.7204 9.27912C5.87319 9.27912 6.0309 9.2939 6.18369 9.3284C6.22801 9.33825 6.26741 9.3481 6.30681 9.35795C6.30188 8.91437 6.31184 8.44617 6.35127 7.98288C6.4942 6.36628 7.061 5.51362 7.65243 4.83839C8.03194 4.41453 8.47552 4.05473 8.97332 3.7738C9.87033 3.26122 10.8856 3 11.9946 3C13.1035 3 14.1238 3.26122 15.0208 3.7738C15.5186 4.05473 15.9622 4.41453 16.3417 4.83839C16.9331 5.51362 17.5048 6.36135 17.6428 7.98288C17.6823 8.44617 17.6921 8.9144 17.6872 9.35798C17.7069 9.35305 17.7278 9.34813 17.7487 9.3432C17.7697 9.33827 17.7907 9.33333 17.8104 9.3284C17.9681 9.2939 18.1209 9.27912 18.2786 9.27912C19.0229 9.27912 19.634 9.67834 19.8804 10.3289Z"/><path fill-rule="evenodd" clip-rule="evenodd" d="M17.5002 23C20.5378 23 23.0002 20.5376 23.0002 17.5C23.0002 14.4624 20.5378 12 17.5002 12C14.4627 12 12.0002 14.4624 12.0002 17.5C12.0002 20.5376 14.4627 23 17.5002 23ZM20.3538 16.3536C20.5491 16.1583 20.5491 15.8417 20.3538 15.6464C20.1585 15.4512 19.842 15.4512 19.6467 15.6464L16.5002 18.7929L14.8538 17.1464C14.6585 16.9512 14.342 16.9512 14.1467 17.1464C13.9514 17.3417 13.9514 17.6583 14.1467 17.8536L16.1467 19.8536C16.2405 19.9473 16.3676 20 16.5002 20C16.6329 20 16.76 19.9473 16.8538 19.8536L20.3538 16.3536Z"/></svg>

<svg xmlns="http://www.w3.org/2000/svg" width="24" height="24" fill="currentColor" viewBox="0 0 24 24">
  <path d="M19.88 10.329c.142.367.152.766.03 1.133a6.452 6.452 0 0 0-1.029-.315.6.6 0 0 0-.011-.434c-.099-.256-.34-.354-.592-.354a.966.966 0 0 0-.236.024c-.283.061-.56.17-.794.263-.163.064-.305.12-.414.146a.34.34 0 0 1-.098.015c-.143 0-.192-.064-.183-.237l.005-.067c.036-.539.1-1.51.02-2.422-.113-1.306-.532-1.956-1.035-2.528-.241-.276-1.37-1.464-3.534-1.464-2.164 0-3.292 1.193-3.534 1.469-.502.572-.921 1.222-1.035 2.528-.076.866-.022 1.785.011 2.337l.009.152c.01.163-.04.237-.182.237a.34.34 0 0 1-.099-.015 3.885 3.885 0 0 1-.395-.14 5.369 5.369 0 0 0-.812-.269 1.284 1.284 0 0 0-.237-.025c-.251 0-.493.099-.591.355-.143.375.049.675.483.981.078.054.214.142.374.245.384.248.9.582 1.05.721.213.194.194.348.17.539l-.003.023c-.02.168-.497 2.4-3.484 3.844-.173.084-.473.262.054.552.45.248.817.346 1.127.428.258.069.477.127.672.253.195.125.222.33.247.52.022.161.042.313.162.396.142.099.402.109.753.122.456.018 1.064.041 1.76.273.352.115.656.302.976.5.62.38 1.298.797 2.487.806.229.368.493.713.789 1.028a5.652 5.652 0 0 1-.772.051c-1.523 0-2.43-.557-3.095-.966-.276-.172-.512-.32-.744-.394-.557-.183-1.04-.202-1.469-.217l-.02-.001c-.466-.02-.907-.038-1.3-.31a1.389 1.389 0 0 1-.356-.364c-.09-.133-.132-.246-.167-.34-.039-.102-.069-.183-.143-.247a.822.822 0 0 0-.242-.108 5.473 5.473 0 0 1-1.207-.483 2.038 2.038 0 0 1-.493-.375c-.39-.404-.488-.877-.335-1.296.176-.474.552-.662.945-.86.07-.034.139-.07.208-.106.878-.478 1.568-1.075 2.046-1.774.138-.198.256-.41.355-.626.049-.129.044-.198.014-.262a.429.429 0 0 0-.133-.133 32.75 32.75 0 0 1-.409-.266l-.068-.044c-.164-.107-.293-.19-.38-.252-.37-.26-.631-.537-.794-.847a1.676 1.676 0 0 1-.084-1.4c.247-.646.858-1.05 1.602-1.05a2.116 2.116 0 0 1 .587.079c-.005-.444.005-.912.044-1.375.143-1.617.71-2.47 1.301-3.145a5.23 5.23 0 0 1 1.321-1.064C9.87 3.26 10.885 3 11.994 3c1.11 0 2.13.261 3.027.774.497.28.94.64 1.32 1.064.592.676 1.164 1.523 1.302 3.145.039.463.049.931.044 1.375l.061-.015.062-.015c.158-.034.31-.049.468-.049.745 0 1.356.4 1.602 1.05Z"/>
  <path fill-rule="evenodd" d="M17.5 23a5.5 5.5 0 1 0 0-11 5.5 5.5 0 0 0 0 11Zm2.854-6.646a.5.5 0 0 0-.708-.708L16.5 18.793l-1.646-1.647a.5.5 0 0 0-.708.708l2 2a.5.5 0 0 0 .708 0l3.5-3.5Z" clip-rule="evenodd"/>
</svg>
